src/assets/icons/1C.svg

<svg width="50" height="26" viewBox="0 0 50 26" fill="none" xmlns="http://www.w3.org/2000/svg">
<path fill-rule="evenodd" clip-rule="evenodd" d="M26.198 21.8849C25.2137 21.8086 24.1536 21.6558 23.3206 21.4266C23.1692 21.3502 22.4876 21.1209 22.3362 21.0445C19.3074 19.6694 17.263 16.537 17.263 13.0226C17.263 8.13297 21.2005 4.1602 26.0466 4.1602C30.817 4.1602 34.7545 8.05656 34.8302 12.9462H38.0105C37.8591 6.22299 32.5586 0.875 25.9709 0.875C19.3831 0.875 14.0069 6.29939 14.0069 12.9462C14.0069 17.5302 16.5814 21.503 20.2918 23.5658C20.9733 23.9477 21.9576 24.3298 22.2605 24.4062C23.3206 24.7117 24.6079 24.9409 25.8194 25.0173C26.198 25.0173 27.561 25.0938 28.0153 25.0938H49.8987V21.8849H28.0911C27.7882 21.8849 26.5009 21.8849 26.198 21.8849ZM28.0911 16.8426C27.8639 16.8426 26.6523 16.8426 26.4251 16.8426C26.0466 16.8426 25.5166 16.7662 25.138 16.6898C24.7593 16.6134 24.3807 16.4605 24.2293 16.3841C23.0177 15.773 22.2605 14.4741 22.2605 13.0226C22.2605 10.8834 23.9264 9.20258 26.0466 9.20258C28.0911 9.20258 29.7569 10.8834 29.8326 12.8698H32.8615C32.7858 9.12617 29.7569 6.07019 26.0466 6.07019C22.2605 6.07019 19.2317 9.12617 19.2317 12.9462C19.2317 15.6202 20.7461 17.9886 23.0177 19.0581C23.3963 19.2873 24.0021 19.4402 24.1536 19.5166C24.7593 19.6694 25.5923 19.8222 26.2737 19.8222C26.5009 19.8222 27.7882 19.8222 28.0153 19.8222H49.9744V16.7662H28.0911V16.8426ZM12.0382 25.0938H8.85788V4.08379H4.16316V0.875H12.0382V25.0938ZM0.679993 5.68819V8.82055H4.16316V25.0938H7.26774V5.68819H0.679993Z" fill="#335999"/>
</svg>

<svg xmlns="http://www.w3.org/2000/svg" fill="none" viewBox="0 0 50 26">
  <path fill="#335999" fill-rule="evenodd" d="M26.2 21.9a16.2 16.2 0 0 1-2.9-.5l-1-.4a8.8 8.8 0 0 1-5-8A8.8 8.8 0 0 1 26 4.2c4.8 0 8.7 3.9 8.8 8.8H38A12 12 0 0 0 26 .8a12 12 0 0 0-12 12 12.2 12.2 0 0 0 8.3 11.5c1 .3 2.3.5 3.5.6H50V22H26.2Zm1.9-5h-1.7a7.3 7.3 0 0 1-1.3-.2 4.1 4.1 0 0 1-.9-.3 3.7 3.7 0 0 1-2-3.4 3.8 3.8 0 0 1 3.9-3.8 3.8 3.8 0 0 1 3.7 3.7h3A6.9 6.9 0 0 0 26.2 6a6.8 6.8 0 0 0-6.9 6.8A6.7 6.7 0 0 0 23 19c.4.3 1 .4 1.1.5.6.2 1.5.3 2.2.3H50v-3H28Zm-16 8.2H8.8v-21H4.2V.9H12V25ZM.6 5.7v3.1h3.5v16.3h3V5.7H.8Z" clip-rule="evenodd"/>
</svg>
